X:69
T:Bohola Jig
R:jig
M:6/8
K:D
e | fef d2B | ABA ABd | efe edB | efe e2e |
fef d2B | ABA ABd | efe edB | ded d2 :|
e | fef a2e | fef a2f | efe edB | efe e2e |
|[1 fef a2e | fef a2f | efe edB | ded d2:|
|[2 fef d2B | ABA ABd | efe edB | ded d2 |]

